X: 391
T: Bill Cheatham
B: jims roots
M:4/4
L:1/8
R: reel
Q: 1/4=100
K:Amaj
V:1 
|: "A"E2 [c2E][c2E] AB | cBAc BAFE | "D"D2 [F2d][F2d] de | fgaf ecBA|
"A"E2 [c2E][c2E] AB | cBAc BABc | "D"dcde fgaf |[1 "E"ecBG "A"A3 A:|[2 "E"ecBG "A"A2 af||
|: "A"ecea "D"fdfa | "E"gefg "A"a2 af | ecea "D"fgaf | "A"ecAc "E"B2 cd |
"A"ecea "D"fdfa | "E"gabg "A"a2 fg | agae"D"fgaf |[1 "E"ecBG "A"A2 af :|[2 ecBG A3 A|]
% abcbook-tune_id 6298c245c4e192bc98878580


% abcbook-boost 0
% abcbook-tablature 
% abcbook-transpose 
% abcbook-lastupdated 1654178373325
% abcbook-soundfonts 
% abcbook-repeats 1


